X:1
T:Title
%%score { ( 1 3 ) | 2 }
L:1/8
M:4/4
K:Ab
V:1 treble nm="Grand Piano"
V:3 treble 
V:2 bass 
V:1
 z4 z2[Q:1/4=100] E2 | E3 E EEEE | F6 F2 | F3 F FFFF |[M:3/4] G6 |[M:1/4] [EG]2 | %6
[M:4/4] [EA]3 [EG] [EA][GB]cd | e6 c2 | BcBA G2 [=DF]2 |[M:3/4] [G,E]6 |[M:1/4] d2 | %11
[M:4/4] z B3- B2 z2 | z A3- A2 z2 | [=DF][DF][DF][DF] [Dc]2 [DB]2 |[M:3/4] B6 |[M:1/4] E2 | %16
[M:4/4] E3 E EEE[CE] | [DF]6 [Fd]2 | c A3 A2 G2 |[M:3/4] [CA]6 |] %20
V:2
 z4 z2 [E,D]2 | [A,C]3 [E,C] [A,C][G,C][F,C][E,C] | [D,D]6 [D,D]2 | %3
 [B,=D]3 [F,D] [B,D][A,D][G,D][F,D] |[M:3/4] [E,E]6 |[M:1/4] D,2 | %6
[M:4/4] C,3 D, C,E,[K:treble][A,A][B,G] | [CA]6 [A,E]2 | %8
 [G,B,E][K:bass][F,A,=D][G,B,E][K:treble][A,CF] [B,E]2[K:bass] B,,2 |[M:3/4] E,6 |[M:1/4] z2 | %11
[M:4/4] z2 [E,G,][E,G,] [E,G,]2 z2 | z2 [A,,E,][A,,E,] [A,,E,]2 [A,,A,]2 | %13
 [B,,A,][B,,A,][B,,A,][B,,A,] [B,,F,]2 [B,,A,]2 |[M:3/4] [E,G,D]6 |[M:1/4] [E,D]2 | %16
[M:4/4] [A,C]3 [E,C] [A,C][E,C][C,C]A,, | D,6 [D,A,]2 | [E,A,E] [E,CE]3 [E,B,D]2 [E,B,D]2 | %19
[M:3/4] [A,,A,]6 |] %20
V:3
 x8 | x8 | x8 | x8 |[M:3/4] x6 |[M:1/4] x2 |[M:4/4] x8 | x8 | x8 |[M:3/4] x6 |[M:1/4] x2 | %11
[M:4/4] .c2 DD .D2 c2 | .B2 CC C2 [CG]2 | x8 |[M:3/4] x6 |[M:1/4] x2 |[M:4/4] x8 | x8 | x8 | %19
[M:3/4] x6 |] %20

